X:1
T:The Forest Dies
T:The Forest Dies
T:(Dark Forest) Wynncraft
T:Needlr Arranged by Henry Grant 
C:Needlr
%%score { 1 | 2 }
L:1/8
Q:1/4=102
M:4/4
K:C
V:1 treble nm="Piano" snm="Pno."
V:2 bass 
V:1
 z8 | z8 | z8 | z8 | A/^G/A/B/ c z z c/B/ AG | AF A>G FA dc/B/ | A2 c2 A3 G | FAdA cA B2 | %8
 A2 z2 B2 ^G2 | c2 A2 B2 d2 | z8 | z2 z2 A/^G/A/G/ A/G/A/G/ | Ac/d/ e>d eBBe | f/e/f c2 dA A2 | %14
 A,/B,/ C3 C/D/ E3 | D/E/ F2 F/E/ D/E/F FE | [EA]/[DB]/ [Cc]3 [Ec]/[^Fd]/ [^Ge]3 | %17
 [Fd]/[Ge]/[Af]- [Af][Af]/[Ge]/ [Fd]/[Ge]/[Af] [Af][Ge] | e/C/E/E/ z2 ED DD/E/ | F2 A2 A2 z2 | %20
 A>^G AB c3 B/c/ | d3 c/B/ A2 cB | B/c/A z2 z ded | d2 cB A2 z2 | AA/B/ cA ^GA BA/B/ | %25
 c>d cB [Ac]>d [Fc]B | [Ac]>d [Ec]B A2 ^GB | A2 z2 z4 | z8 | z8 | z8 | z8 | %32
 A/^G/A/B/ c z z c/B/ AG | AF A>G FA dc/B/ | A2 c2 A3 G | FAdA cA B2 | A2 z2 B2 ^G2 | c2 A2 B2 d2 | %38
 A2 z2 z4 | z8 | z8 | z8 | z8 | z8 | A/^G/A/B/ c z z c/B/ AG | AF A>G FA dc/B/ | A2 c2 A3 G | %47
 FAdA cA B2 | A2 z2 B2 ^G2 | c2 A2 B2 d2 | z8 | z2 z2 A/^G/A/G/ A/G/A/G/ | Ac/d/ e>d eBBe | %53
 f/e/f c2 dA A2 | A,/B,/ C3 C/D/ E3 | D/E/ F2 F/E/ D/E/F FE | [EA]/[DB]/ [Cc]3 [Ec]/[^Fd]/ [^Ge]3 | %57
 [Fd]/[Ge]/[Af]- [Af][Af]/[Ge]/ [Fd]/[Ge]/[Af] [Af][Ge] | e/C/E/E/ z2 ED DD/E/ | F2 A2 A2 z2 | %60
 A>^G AB c3 B/c/ | d3 c/B/ A2 cB | B/c/A z2 z ded | d2 cB A2 z2 | AA/B/ cA ^GA BA/B/ | %65
 c>d cB [Ac]>d [Fc]B | [Ac]>d [Ec]B A2 ^GB | A2 z2 z4 | z8 | z8 | z8 | z8 | %72
 A/^G/A/B/ c z z c/B/ AG | AF A>G FA dc/B/ | A2 c2 A3 G | FAdA cA B2 | A2 z2 B2 ^G2 | c2 A2 B2 d2 | %78
 A2 z2 z4 | z8 |] %80
V:2
 A,,A,[CE]A,, E,,^G,[B,E]E,, | F,,A,[CF]F,, D,,D-[A,DF]B,,, | A,,,A,[CE]A,, E,,^G,[B,E]E,, | %3
 F,,A,[CF]F,, D,,D-[A,DF]B,,, | A,,[CE]E,[CE] E,[B,E]B,,[B,E] | F,[CF]C,[CF] D,[A,F]A,,[A,F] | %6
 A,,[CE]E,[CE] E,[B,E]B,,[B,E] | F,[CF]C,[CF] D,[A,F]A,,[A,F] | A,,A,[CE]A,, E,,^G,[B,E]E,, | %9
 F,,A,[CF]F,, D,,D-[A,DF]B,,, | A,,A,[CE]A,, E,,^G,[B,E]E,, | F,,A,[CF]F,, D,,D-[A,DF]B,,, | %12
 A,,[CE]E,[CE] E,[B,E]B,,[B,E] | F,[CF]C,[CF] D,[A,F]A,,[A,F] | A,,[CE]E,[CE] E,[B,E]B,,[B,E] | %15
 F,[CF]C,[CF] D,[A,F]A,,[A,F] | A,,[CE]E,[CE] E,[B,E]B,,[B,E] | F,[CF]C,[CF] D,[A,F]A,,[A,F] | %18
 A,,A,CA,, E,,^G,[B,E]E,, | F,,A,[CF]F,, D,,D-[A,DF]B,,, | A,,2 [CE]2 E,,2 [B,E]2 | %21
 F,,2 [CF]2 D,,2 [A,DF]2 | A,,2 [CE]2 E,,2 [B,E]2 | F,,2 [CF]2 D,,2 [A,DF]2 | %24
 A,,2 [CE]2 E,,2 [B,E]2 | F,,2 [CF]2 D,,2 [A,DF]2 | A,,2 [CE]2 E,,2 [B,E]2 | %27
 F,,2 [CF]2 D,,2 [A,DF]2 | A,,[CE]E,[CE] E,[B,E]B,,[B,E] | F,[CF]C,[CF] D,[A,F]A,,[A,F] | %30
 A,,[CE]E,[CE] E,[B,E]B,,[B,E] | F,[CF]C,[CF] D,[A,F]A,,[A,F] | A,,[CE]E,[CE] E,[B,E]B,,[B,E] | %33
 F,[CF]C,[CF] D,[A,F]A,,[A,F] | A,,[CE]E,[CE] E,[B,E]B,,[B,E] | F,[CF]C,[CF] D,[A,F]A,,[A,F] | %36
 A,,A,[CE]A,, E,,^G,[B,E]E,, | F,,A,[CF]F,, D,,D-[A,DF]B,,, | A,,A,[CE]A,, E,,^G,[B,E]E,, | %39
 F,,A,[CF]F,, D,,D-[A,DF]B,,, | A,,A,[CE]A,, E,,^G,[B,E]E,, | F,,A,[CF]F,, D,,D-[A,DF]B,,, | %42
 A,,A,[CE]A,, E,,^G,[B,E]E,, | F,,A,[CF]F,, D,,D-[A,DF]B,,, | A,,[CE]E,[CE] E,[B,E]B,,[B,E] | %45
 F,[CF]C,[CF] D,[A,F]A,,[A,F] | A,,[CE]E,[CE] E,[B,E]B,,[B,E] | F,[CF]C,[CF] D,[A,F]A,,[A,F] | %48
 A,,A,[CE]A,, E,,^G,[B,E]E,, | F,,A,[CF]F,, D,,D-[A,DF]B,,, | A,,A,[CE]A,, E,,^G,[B,E]E,, | %51
 F,,A,[CF]F,, D,,D-[A,DF]B,,, | A,,[CE]E,[CE] E,[B,E]B,,[B,E] | F,[CF]C,[CF] D,[A,F]A,,[A,F] | %54
 A,,[CE]E,[CE] E,[B,E]B,,[B,E] | F,[CF]C,[CF] D,[A,F]A,,[A,F] | A,,[CE]E,[CE] E,[B,E]B,,[B,E] | %57
 F,[CF]C,[CF] D,[A,F]A,,[A,F] | A,,A,CA,, E,,^G,[B,E]E,, | F,,A,[CF]F,, D,,D-[A,DF]B,,, | %60
 A,,2 [CE]2 E,,2 [B,E]2 | F,,2 [CF]2 D,,2 [A,DF]2 | A,,2 [CE]2 E,,2 [B,E]2 | %63
 F,,2 [CF]2 D,,2 [A,DF]2 | A,,2 [CE]2 E,,2 [B,E]2 | F,,2 [CF]2 D,,2 [A,DF]2 | %66
 A,,2 [CE]2 E,,2 [B,E]2 | F,,2 [CF]2 D,,2 [A,DF]2 | A,,[CE]E,[CE] E,[B,E]B,,[B,E] | %69
 F,[CF]C,[CF] D,[A,F]A,,[A,F] | A,,[CE]E,[CE] E,[B,E]B,,[B,E] | F,[CF]C,[CF] D,[A,F]A,,[A,F] | %72
 A,,[CE]E,[CE] E,[B,E]B,,[B,E] | F,[CF]C,[CF] D,[A,F]A,,[A,F] | A,,[CE]E,[CE] E,[B,E]B,,[B,E] | %75
 F,[CF]C,[CF] D,[A,F]A,,[A,F] | A,,A,[CE]A,, E,,^G,[B,E]E,, | F,,A,[CF]F,, D,,D-[A,DF]B,,, | %78
 A,,A,[CE]A,, E,,^G,[B,E]E,, | F,,A,[CF]F,, D,,D- [A,DF]2 |] %80

